!!!!SEGMENT: pl-cz--i-49--001_malik-jan--marsz-wegierski.krn
!!!cenid: 18xx:978
!!!COM: Malik, Jan
!!!COM-rismid: pe30023932
!!!CDT: ~1800-1866
!!!CNT: Czech
!!!OTL: Marsz węgierski
!!!PDT:
!!!AGN: Secular; March
!!!SMS-siglum: PL-CZ
!!!SMS-shelfmark: I-49
!!!SMS-shelfwork: 001 W
!!!SMS-variant:
!!!SMS-altvar:
!!!NIFC-rismid: 300000813
!!!URL-scan: http://repozytorium.nifc.pl/skany/pl-cz-nut--i-49
!!!ONB-nifc:
**kern	**kern	**dynam	**kern	**dynam	**kern	**kern	**dynam	**kern	**dynam	**kern	**dynam	**kern	**dynam
*part8	*part7	*part7	*part6	*part6	*part5	*part4	*part4	*part3	*part3	*part2	*part2	*part1	*part1
*group3	*group2	*	*group2	*	*group2	*group2	*	*group2	*	*group1	*	*group1	*
*staff8	*staff7	*	*staff6	*	*staff5	*staff4	*	*staff3	*	*staff2	*	*staff1	*
*I"[Grancassa]	*I"Bombardon.	*	*I"Tromba 2.do in Es.	*	*I"[Tromba 1]	*I"Corno 2.do in Es.	*	*I"Corno 1mo in Es.	*	*I"Clarinetto 2.do in B.	*	*I"Clarinetto. in Es.	*
*I'grancassa	*I'bombarde	*	*I'tr 2	*	*I'tr 1	*I'cor 2	*	*I'cor 1	*	*I'cl 2	*	*I'cl	*
*clefF4	*clefF4	*	*clefG2	*	*clefG2	*clefG2	*	*clefG2	*	*clefG2	*	*clefG2	*
*	*	*	*ITrd-2c-3	*	*ITrd-2c-3	*ITrd5c9	*	*ITrd5c9	*	*ITrd1c2	*	*ITrd-2c-3	*
*k[b-e-]	*k[b-e-]	*	*k[b-e-]	*	*k[b-e-]	*k[b-e-]	*	*k[b-e-]	*	*k[b-e-]	*	*k[b-e-]	*
*B-:	*B-:	*	*B-:	*	*B-:	*B-:	*	*B-:	*	*B-:	*	*B-:	*
*M2/2	*M2/2	*	*M2/2	*	*M2/2	*M2/2	*	*M2/2	*	*M2/2	*	*M2/2	*
*met(c|)	*met(c|)	*	*met(c|)	*	*met(c|)	*met(c|)	*	*met(c|)	*	*met(c|)	*	*met(c|)	*
*	*	*	*	*	*	*	*	*	*	*	*	*Xtuplet	*
!	!	!	!LO:TX:t=P:problem:przy kluczu f#	!	!	!LO:TX:t=P:problem:przy kluczu f#	!	!LO:TX:t=P:problem:przy kluczu f#	!	!	!	!	!
!LO:TX:t=P:problem:zgodnie z RISM "tr 1 and gran cassa missing"	!	!	!	!	!LO:TX:t=P:problem:zgodnie z RISM "tr 1 and gran cassa missing"	!	!	!	!	!LO:TUP:b:problem:klamra łukowa	!LO:DY:B:i:t=fo	!LO:N:vis=24	!LO:DY:B:i:t=for
4ryy	4r	.	4r	.	4ryy	4r	.	4r	.	12f/L	f	12ff\L	f
!	!	!	!	!	!	!	!	!	!	!	!	!LO:N:vis=24	!
.	.	.	.	.	.	.	.	.	.	12g/	.	12gg\	.
!	!	!	!	!	!	!	!	!	!	!	!	!LO:N:vis=24	!
.	.	.	.	.	.	.	.	.	.	12a/J	.	12aa\J	.
=1	=1	=1	=1	=1	=1	=1	=1	=1	=1	=1	=1	=1	=1
!	!	!LO:DY:B:i:b:rj:t=fo	!	!LO:DY:B:i:b:rj:t=fo	!	!	!LO:DY:B:i:b:rj:t=fo	!	!LO:DY:B:i:b:rj:t=fo	!	!	!	!
1ryy	4BB-'\	f	4d/	f	1ryy	4B-/	f	4f\	f	4b-\	.	4bb-\	.
.	4B-'\	.	8d/L	.	.	8B-/L	.	8f\L	.	8b-\L	.	8bb-\L	.
.	.	.	8d/J	.	.	8B-/J	.	8f\J	.	8b-\J	.	8bb-\J	.
.	4F'\	.	4d/	.	.	4B-/	.	4f\	.	4b-\	.	4bb-\	.
.	4D'\	.	4d/	.	.	4B-/	.	4f\	.	4b-\	.	4bb-\	.
=2	=2	=2	=2	=2	=2	=2	=2	=2	=2	=2	=2	=2	=2
*	*2\right	*	*	*	*	*2\right	*	*2\right	*	*	*	*	*
1ryy	2BB-/	.	2d/	.	1ryy	2B-^>/	.	2f^<\	.	4.dd^\	.	4.ddd\	.
.	.	.	.	.	.	.	.	.	.	8b-\	.	8bb-\	.
!	!LO:SIC:v:s=4D\	!	!	!	!	!	!	!	!	!	!	!	!
.	4E-\	.	4d/	.	.	4B-/	.	4f\	.	8f'/L	.	8ff'\L	.
.	.	.	.	.	.	.	.	.	.	8d'/	.	8dd'\	.
.	4BB-/	.	4d/	.	.	4B-/	.	4f\	.	8f'/	.	8ff'\	.
.	.	.	.	.	.	.	.	.	.	8b-'/J	.	8bb-'\J	.
=3	=3	=3	=3	=3	=3	=3	=3	=3	=3	=3	=3	=3	=3
!	!	!	!	!	!	!	!	!	!	!LO:TX:t=P:problem:niejednoznaczny zapis ozdobnika [przyjęto trillo]:global	!	!LO:TX:t=P:problem:niejednoznaczny zapis ozdobnika [przyjęto trillo]:global	!
!	!	!	!	!	!	!	!	!	!	!LO:TX:a:B:t=t	!	!LO:TX:a:B:t=t	!
1ryy	2E-^<\	.	2e-/	.	1ryy	2e-^<\	.	2g^<\	.	4g/	.	4gg\	.
.	.	.	.	.	.	.	.	.	.	8cc\L	.	(8ccc\L	.
.	.	.	.	.	.	.	.	.	.	8ee-\J	.	8eee-\J)	.
!	!	!	!	!	!	!	!	!	!	!LO:TX:a:B:t=t	!	!LO:TX:a:B:t=t	!
.	2F^<\	.	2c/	.	.	2e-^<\	.	2f^<\	.	4f/	.	4ff\	.
.	.	.	.	.	.	.	.	.	.	8a\L	.	(8aa\L	.
.	.	.	.	.	.	.	.	.	.	8cc\J	.	8ccc\J)	.
=	=	=	=	=	=	=	=	=	=	=	=	=	=
1ryy	4BB-/	.	4d/	.	1ryy	4B-/	.	4f\	.	4b-\	.	4bb-\	.
.	.	.	.	.	.	.	.	.	.	8qcc/	.	8qccc/	.
.	4BB-/	.	8d/L	.	.	8B-/L	.	8f\L	.	8b-\L	.	8bb-'\L	.
.	.	.	8d/J	.	.	8B-/J	.	8f\J	.	8a\J	.	8aa'\J	.
.	4BB-/	.	4d/	.	.	4B-/	.	4f\	.	8b-\	.	8bb-'\	.
.	.	.	.	.	.	.	.	.	.	8r	.	8r	.
=4!|:	=4!|:	=4!|:	=4!|:	=4!|:	=4!|:	=4!|:	=4!|:	=4!|:	=4!|:	=4!|:	=4!|:	=4!|:	=4!|:
.	4r	.	4r	.	.	4r	.	4r	.	4f/	p	4ff\	p
=5	=5	=5	=5	=5	=5	=5	=5	=5	=5	=5	=5	=5	=5
!	!	!LO:DY:rj	!	!LO:DY:rj	!	!	!LO:DY:rj	!	!LO:DY:rj	!	!	!	!
1ryy	4BB-/	p	4r	p	1ryy	4r	p	4r	p	4d/	.	4dd\	.
.	4r	.	4d/	.	.	4B-/	.	4f\	.	(16d/LL	.	(16dd\LL	.
.	.	.	.	.	.	.	.	.	.	16f/JJ)	.	16ff\JJ)	.
.	.	.	.	.	.	.	.	.	.	8r	.	8r	.
.	4BB-/	.	4r	.	.	4r	.	4r	.	(16f/LL	.	(16ff\LL	.
.	.	.	.	.	.	.	.	.	.	16b-/JJ)	.	16bb-\JJ)	.
.	.	.	.	.	.	.	.	.	.	8r	.	8r	.
.	4r	.	4d/	.	.	4B-/	.	4f\	.	(16b-\LL	.	(16bb-\LL	.
.	.	.	.	.	.	.	.	.	.	16dd\JJ)	.	16ddd\JJ)	.
.	.	.	.	.	.	.	.	.	.	8r	.	8r	.
=6	=6	=6	=6	=6	=6	=6	=6	=6	=6	=6	=6	=6	=6
1ryy	4EE-/	.	4r	.	1ryy	4r	.	4r	.	(16dd\LL	.	(16ddd\LL	.
.	.	.	.	.	.	.	.	.	.	16cc\JJ)	.	16ccc\JJ)	.
.	.	.	.	.	.	.	.	.	.	8r	.	8r	.
.	.	.	.	.	.	.	.	.	.	8qdd/	.	8qddd/	.
.	4r	.	8e-/L	.	.	8e-\L	.	8g\L	.	16cc\LL	.	16ccc\LL	.
.	.	.	.	.	.	.	.	.	.	16bX\JJ	.	16bbX\JJ	.
.	.	.	8e-/J	.	.	8e-\J	.	8g\J	.	8r	.	8r	.
!	!	!	!	!	!	!	!	!	!	!LO:LB:g=original	!	!	!
.	4EE-/	.	4e-/	.	.	4e-\	.	4g\	.	4.cc\	.	4.ccc\	.
.	4r	.	4e-/	.	.	4e-\	.	4g\	.	.	.	.	.
.	.	.	.	.	.	.	.	.	.	8e-/	.	8ee-\	.
!	!LO:LB:g=original	!	!	!	!	!LO:LB:g=original	!	!LO:LB:g=original	!	!	!	!LO:LB:g=original	!
=7	=7	=7	=7	=7	=7	=7	=7	=7	=7	=7	=7	=7	=7
1ryy	4FF/	.	4r	.	1ryy	4r	.	4r	.	4c/	.	4cc\	.
.	4r	.	4e-/	.	.	4e-\	.	4f\	.	(16c/LL	.	(16cc\LL	.
.	.	.	.	.	.	.	.	.	.	16e-/JJ)	.	16ee-\JJ)	.
.	.	.	.	.	.	.	.	.	.	8r	.	8r	.
.	4FF/	.	4r	.	.	4r	.	4r	.	(16e-/LL	.	(16ee-\LL	.
.	.	.	.	.	.	.	.	.	.	16a/JJ)	.	16aa\JJ)	.
.	.	.	.	.	.	.	.	.	.	8r	.	8r	.
.	4r	.	4e-/	.	.	4e-\	.	4f\	.	(16a\LL	.	(16aa\LL	.
.	.	.	.	.	.	.	.	.	.	16cc\JJ)	.	16ccc\JJ)	.
.	.	.	.	.	.	.	.	.	.	8r	.	8r	.
!	!	!	!LO:LB:g=original	!	!	!	!	!	!	!	!	!	!
=8	=8	=8	=8	=8	=8	=8	=8	=8	=8	=8	=8	=8	=8
1ryy	4BB-/	.	4r	.	1ryy	4r	.	4r	.	(16cc\LL	.	(16ccc\LL	.
.	.	.	.	.	.	.	.	.	.	16b-\JJ)	.	16bb-\JJ)	.
.	.	.	.	.	.	.	.	.	.	8r	.	8r	.
.	.	.	.	.	.	.	.	.	.	8qcc/	.	8qccc/	.
.	4r	.	8d/L	.	.	8B-/L	.	8f\L	.	(16b-\LL	.	(16bb-\LL	.
.	.	.	.	.	.	.	.	.	.	16a\JJ)	.	16aa\JJ)	.
.	.	.	8d/J	.	.	8B-/J	.	8f\J	.	8r	.	8r	.
.	4BB-/	.	4d/	.	.	4B-/	.	4f\	.	4.b-\	.	4.bb-\	.
.	4r	.	4d/	.	.	4B-/	.	4f\	.	.	.	.	.
.	.	.	.	.	.	.	.	.	.	8f/	.	8ff\	.
=9	=9	=9	=9	=9	=9	=9	=9	=9	=9	=9	=9	=9	=9
*	*rep	*	*	*	*	*	*	*	*	*	*	*	*
1ryy	4BB-/	.	4r	.	1ryy	4r	.	4r	.	4d/	.	4dd\	.
.	4r	.	4d/	.	.	4B-/	.	4f\	.	(16d/LL	.	(16dd\LL	.
.	.	.	.	.	.	.	.	.	.	16f/JJ)	.	16ff\JJ)	.
.	.	.	.	.	.	.	.	.	.	8r	.	8r	.
.	4BB-/	.	4r	.	.	4r	.	4r	.	(16f\LL	.	(16ff\LL	.
.	.	.	.	.	.	.	.	.	.	16b-\JJ)	.	16bb-\JJ)	.
.	.	.	.	.	.	.	.	.	.	8r	.	8r	.
.	4r	.	4d/	.	.	4B-/	.	4f\	.	(16b-\LL	.	(16bb-\LL	.
.	.	.	.	.	.	.	.	.	.	16dd\JJ)	.	16ddd\JJ)	.
.	.	.	.	.	.	.	.	.	.	8r	.	8r	.
*	*Xrep	*	*	*	*	*	*	*	*	*	*	*	*
=10	=10	=10	=10	=10	=10	=10	=10	=10	=10	=10	=10	=10	=10
1ryy	4E-\	.	4r	.	1ryy	4r	.	4r	.	(16dd\LL	.	(16ddd\LL	.
.	.	.	.	.	.	.	.	.	.	16cc\JJ)	.	16ccc\JJ)	.
.	.	.	.	.	.	.	.	.	.	8r	.	8r	.
.	4r	.	8c/L	.	.	8c/L	.	8e-\L	.	(16cc\LL	.	(16ccc\LL	.
.	.	.	.	.	.	.	.	.	.	16dd\JJ)	.	16ddd\JJ)	.
.	.	.	8c/J	.	.	8c/J	.	8e-\J	.	8r	.	8r	.
!	!	!	!	!	!	!	!	!	!	!	!	!	!LO:DY:B:i:b:t=fo
.	4C\	.	4c/	.	.	4c/	.	4e-\	.	4.ee-^<\	.	4.eee-\	f
.	4E-\	.	4c/	.	.	4c/	.	4e-\	.	.	.	.	.
!	!	!	!	!	!	!	!	!	!	!	!LO:DY:B:i:b:t=fo	!	!
.	.	.	.	.	.	.	.	.	.	8cc\	f	8ccc\	.
=11	=11	=11	=11	=11	=11	=11	=11	=11	=11	=11	=11	=11	=11
!	!	!LO:DY:B:i:b:rj:t=fo	!	!LO:DY:B:i:b:rj:t=fo	!	!	!LO:DY:B:i:b:rj:t=fo	!	!LO:DY:B:i:b:rj:t=fo	!	!	!	!
1ryy	2F^<\	f	2d^>/	f	1ryy	2B-^/	f	2f^<\	f	8dd\L	.	8ddd\L	.
.	.	.	.	.	.	.	.	.	.	8cc\J	.	8ccc\J	.
.	.	.	.	.	.	.	.	.	.	4b-\	.	4bb-\	.
!	!	!	!	!	!	!	!	!	!	!LO:LB:g=original	!	!	!
.	.	.	.	.	.	.	.	.	.	8qf/	.	8qdd/	.
.	2FF^>/	.	2c^>/	.	.	2c^/	.	2f^<\	.	8cc\L	.	8ccc\L	.
.	.	.	.	.	.	.	.	.	.	8b-\J	.	8bb-\J	.
.	.	.	.	.	.	.	.	.	.	4a\	.	4aa\	.
=	=	=	=	=	=	=	=	=	=	=	=	=	=
2.ryy	4BB-/	.	4d/	.	2.ryy	4B-/	.	4f\	.	4b-\	.	4bb-\	.
.	.	.	.	.	.	.	.	.	.	8qcc/	.	8qccc/	.
.	4BB-/	.	8d/L	.	.	8B-/L	.	8f\L	.	8b-\L	.	8bb-\L	.
.	.	.	8d/J	.	.	8B-/J	.	8f\J	.	8a\J	.	8aa\J	.
.	4BB-/	.	4d/	.	.	4B-/	.	4f\	.	4b-\	.	4bb-\	.
!	!	!	!	!	!	!	!	!	!	!	!	!LO:LB:g=original	!
=12:|!|:	=12:|!|:	=12:|!|:	=12:|!|:	=12:|!|:	=12:|!|:	=12:|!|:	=12:|!|:	=12:|!|:	=12:|!|:	=12:|!|:	=12:|!|:	=12:|!|:	=12:|!|:
*	*	*	*	*	*	*	*	*	*	*	*	*tuplet	*
!	!	!LO:DY:B:i:b:t=fo	!	!	!	!	!	!	!	!LO:TUP:b:problem:klamra łukowa	!LO:DY:B:i:b:t=fo	!LO:TUP:a:problem:klamra łukowa	!
4ryy	4r	f	4r	.	4ryy	4r	.	4r	.	12f#X/L	f	12ff#X\L	.
.	.	.	.	.	.	.	.	.	.	12g/	.	12gg\	.
.	.	.	.	.	.	.	.	.	.	12a/J	.	12aa\J	.
=13	=13	=13	=13	=13	=13	=13	=13	=13	=13	=13	=13	=13	=13
*	*	*	*	*	*	*	*	*	*	*2\right	*	*2\right	*
!	!	!	!	!LO:DY:B:i:b:rj:t=fo	!	!	!LO:DY:B:i:b:t=for	!	!LO:DY:B:i:b:rj:t=fo	!	!	!	!LO:DY:B:i:b:t=fo
1ryy	2GG^>/	.	2d^>/	f	1ryy	2B-^>/	f	2g^<\	f	2b-\	.	2bb-\	f
.	2D^<\	.	2d^>/	.	.	2c^>/	.	2f#X^<\	.	4..a\	.	4..aa\	.
.	.	.	.	.	.	.	.	.	.	16f#X\	.	16ff#X\	.
!	!LO:LB:g=original	!	!	!	!	!LO:LB:g=original	!	!LO:LB:g=original	!	!	!	!	!
=14	=14	=14	=14	=14	=14	=14	=14	=14	=14	=14	=14	=14	=14
1ryy	4G'\	.	4d/	.	1ryy	4B-/	.	4g\	.	4g/	.	4gg\	.
.	.	.	.	.	.	.	.	.	.	8qa/	.	8qaa/	.
.	4D'\	.	8d/L	.	.	8B-/L	.	8g\L	.	8g/L	.	8gg'\L	.
.	.	.	8d/J	.	.	8B-/J	.	8g\J	.	8f#X/	.	8ff#X'\	.
.	4BB-'/	.	4d/	.	.	4B-/	.	4g\	.	8g/	.	8gg'\	.
.	.	.	.	.	.	.	.	.	.	8a/J	.	8aa'\J	.
.	4GG'/	.	4d/	.	.	4B-/	.	4g\	.	4b-\	.	4bb-\	.
=15	=15	=15	=15	=15	=15	=15	=15	=15	=15	=15	=15	=15	=15
1ryy	4D\	.	4d/	.	1ryy	4AX/	.	4f#X\	.	4a\	.	4aa\	.
.	.	.	.	.	.	.	.	.	.	8qb-/	.	8qbb-/	.
.	2D^<\	.	2d^>/	.	.	2A^>/	.	2f#^<\	.	8a\L	.	8aa'\L	.
.	.	.	.	.	.	.	.	.	.	8g\J	.	8gg'\J	.
.	.	.	.	.	.	.	.	.	.	4f#X\	.	4ff#X'\	.
.	4F#X'\	.	4d/	.	.	4A/	.	4f#\	.	4dd\	.	4ddd'\	.
!	!	!	!LO:LB:g=original	!	!	!	!	!	!	!	!	!	!
=16	=16	=16	=16	=16	=16	=16	=16	=16	=16	=16	=16	=16	=16
1ryy	4G\	.	4d/	.	1ryy	4B-/	.	4g\	.	4b-\	.	4bb-\	.
.	.	.	.	.	.	.	.	.	.	8qcc/	.	8qccc/	.
.	4D\	.	4d/	.	.	4d/	.	4f#X\	.	8b-\L	.	8bb-'\L	.
.	.	.	.	.	.	.	.	.	.	8a\J	.	8aa'\J	.
.	2GG^>/	.	2d^>/	.	.	2d^/	.	2g^<\	.	2g/	.	2gg\	.
.	.	.	.	.	.	.	.	.	.	(32qqf/LLL	.	32qqff/LLL	.
.	.	.	.	.	.	.	.	.	.	32qqg/	.	32qqgg/	.
.	.	.	.	.	.	.	.	.	.	32qqa/JJJ)	.	32qqaa/JJJ	.
=17	=17	=17	=17	=17	=17	=17	=17	=17	=17	=17	=17	=17	=17
!	!	!LO:DY:rj	!	!LO:DY:rj	!	!	!LO:DY:rj	!	!LO:DY:rj	!	!	!	!
1ryy	2BB-/	p	2d/	p	1ryy	2B-/	p	2fnX^<\	p	2b-\	p	2bb-\	p
.	2BB-/	.	2d/	.	.	2B-/	.	2f^<\	.	4..dd\	.	4..ddd\	.
.	.	.	.	.	.	.	.	.	.	16b-\	.	16bb-\	.
!	!	!	!	!	!	!	!	!	!	!LO:LB:g=original	!	!	!
=18	=18	=18	=18	=18	=18	=18	=18	=18	=18	=18	=18	=18	=18
.	.	.	.	.	.	.	.	.	.	8qdd/	.	8qddd/	.
1ryy	4EE-'/	.	4c/	.	1ryy	4c/	.	4e-\	.	8cc\L	.	8ccc\L	.
.	.	.	.	.	.	.	.	.	.	8bX\	.	8bbX\	.
.	4GG'/	.	8c/L	.	.	8c/L	.	8e-\L	.	8cc\	.	8ccc\	.
.	.	.	8c/J	.	.	8c/J	.	8e-\J	.	8dd\J	.	8ddd\J	.
.	4C'/	.	4c/	.	.	4c/	.	4e-\	.	8ee-\L	.	8eee-\L	.
.	.	.	.	.	.	.	.	.	.	8dd\	.	8ddd\	.
.	4EE-'/	.	4c/	.	.	4c/	.	4e-\	.	8cc\	.	8ccc\	.
.	.	.	.	.	.	.	.	.	.	8b-\J	.	8bb-\J	.
=19	=19	=19	=19	=19	=19	=19	=19	=19	=19	=19	=19	=19	=19
!	!	!	!	!LO:DY:B:i:b:rj:t=fo	!	!	!LO:DY:B:i:b:rj:t=fo	!	!LO:DY:B:i:b:rj:t=fo	!	!LO:DY:B;I;b:t=fo	!	!
1ryy	4FF/	.	4e-/	f	1ryy	4c/	f	4f\	f	4a\	f	4aa\	.
.	.	.	.	.	.	.	.	.	.	8qb-/	.	8qbb-/	.
.	2FF^>/	.	2e-^>/	.	.	2c^>/	.	2f^<\	.	8a\L	.	8aa\L	.
.	.	.	.	.	.	.	.	.	.	8g\J	.	8gg\J	.
!	!	!	!	!	!	!	!	!	!	!	!	!LO:LB:g=original	!
.	.	.	.	.	.	.	.	.	.	8a\L	.	8aa'\L	.
.	.	.	.	.	.	.	.	.	.	8f\	.	8ff'\	.
.	4FF/	.	4e-/	.	.	4c/	.	4f\	.	8g\	.	8gg'\	.
.	.	.	.	.	.	.	.	.	.	8a\J	.	8aa'\J	.
=	=	=	=	=	=	=	=	=	=	=	=	=	=
2.yy	4BB-/	.	4d/	.	2.yy	4B-/	.	4f\	.	4b-\	.	4bb-\	.
.	.	.	.	.	.	.	.	.	.	8qcc/	.	8qccc/	.
.	4BB-/	.	8d/L	.	.	8B-/L	.	8f\L	.	8b-\L	.	8bb-'\L	.
.	.	.	8d/J	.	.	8B-/J	.	8f\J	.	8a\J	.	8aa'\J	.
.	4BB-/	.	4d/	.	.	4B-/	.	4f\	.	4b-\	.	4bb-\	.
!	!LO:LB:g=original	!	!LO:LB:g=original	!	!	!LO:LB:g=original	!	!LO:LB:g=original	!	!	!	!	!
=20:|!	=20:|!	=20:|!	=20:|!	=20:|!	=20:|!	=20:|!	=20:|!	=20:|!	=20:|!	=20:|!	=20:|!	=20:|!	=20:|!
*	*k[b-e-a-]	*	*k[b-e-a-]	*	*	*k[b-e-a-]	*	*k[b-e-a-]	*	*k[b-e-a-]	*	*k[b-e-a-]	*
*	*M2/2	*	*M2/2	*	*	*M2/2	*	*M2/2	*	*M2/2	*	*M2/2	*
*	*met(c|)	*	*met(c|)	*	*	*met(c|)	*	*met(c|)	*	*met(c|)	*	*met(c|)	*
!	!LO:TX:a:t=Trio	!	!LO:TX:a:t=Trio	!	!	!LO:TX:a:t=Trio	!	!LO:TX:a:t=Trio	!	!LO:TX:a:t=Trio	!	!LO:TX:a:t=Trio	!
!	!	!	!	!	!	!	!	!	!	!LO:N:vis=16.	!	!	!
4r	4r	.	4r	.	4r	4r	.	4r	.	8.g\L	.	8.gg\L	p
!	!	!	!	!	!	!	!	!	!	!LO:N:vis=32	!	!	!
.	.	.	.	.	.	.	.	.	.	16a-\Jk	.	16aa-\Jk	.
!!LO:TX:t=[segno]	!
=21	=21	=21	=21	=21	=21	=21	=21	=21	=21	=21	=21	=21	=21
!	!	!LO:DY:rj	!	!LO:DY:rj	!	!	!	!	!	!	!	!	!
1ryy	4EE-/	p	4r	p	1ryy	4r	.	4r	.	8b-'\	p	8bb-'\	.
.	.	.	.	.	.	.	.	.	.	8r	.	8r	.
!	!	!	!	!	!	!	!LO:DY:rj	!	!LO:DY:rj	!	!	!	!
.	4r	.	4B-/	.	.	4G/	p	4e-\	p	8ee-'\	.	8eee-'\	.
.	.	.	.	.	.	.	.	.	.	8r	.	8r	.
.	4EE-/	.	4r	.	.	4r	.	4r	.	8dd'\	.	8ddd'\	.
.	.	.	.	.	.	.	.	.	.	8r	.	8r	.
.	4r	.	4B-/	.	.	4G/	.	4e-\	.	8ee-'\	.	8eee-'\	.
.	.	.	.	.	.	.	.	.	.	8r	.	8r	.
=22	=22	=22	=22	=22	=22	=22	=22	=22	=22	=22	=22	=22	=22
1ryy	4AA-/	.	4r	.	1ryy	4r	.	4r	.	8dd\	.	8ddd'\	.
.	.	.	.	.	.	.	.	.	.	8r	.	8r	.
.	4r	.	4c/	.	.	4c/	.	4f\	.	8cc\	.	8ccc'\	.
.	.	.	.	.	.	.	.	.	.	8r	.	8r	.
.	2r	.	4c/	.	.	4c/	.	4f\	.	4.f^/	.	4.ff^<\	.
.	.	.	4c/	.	.	4c/	.	4f\	.	.	.	.	.
.	.	.	.	.	.	.	.	.	.	8a-/	.	8aa-\	.
=23	=23	=23	=23	=23	=23	=23	=23	=23	=23	=23	=23	=23	=23
1ryy	4BB-/	.	4r	.	1ryy	4r	.	4r	.	8cc\	.	8ccc'\	.
.	.	.	.	.	.	.	.	.	.	8r	.	8r	.
.	4r	.	4d/	.	.	4B-/	.	4f\	.	8b-\	.	8bb-'\	.
.	.	.	.	.	.	.	.	.	.	8r	.	8r	.
!	!	!	!	!	!	!	!	!	!	!LO:LB:g=original	!	!	!
.	4BB-/	.	4r	.	.	4r	.	4r	.	4f/	.	4ff\	.
.	4r	.	4d/	.	.	4B-/	.	4f\	.	(8a-\L	.	(8aa-\L	.
.	.	.	.	.	.	.	.	.	.	8dd\J)	.	8ddd\J)	.
=24	=24	=24	=24	=24	=24	=24	=24	=24	=24	=24	=24	=24	=24
1ryy	4EE-/	.	4r	.	1ryy	4r	.	4r	.	8cc\	.	8ccc\	.
.	.	.	.	.	.	.	.	.	.	8r	.	8r	.
.	4r	.	4B-/	.	.	4G/	.	4e-\	.	8b-\	.	8bb-\	.
.	.	.	.	.	.	.	.	.	.	8r	.	8r	.
.	2r	.	4B-/	.	.	4G/	.	4e-\	.	4.g/	.	4.gg^<\	.
.	.	.	4B-/	.	.	4G/	.	4e-\	.	.	.	.	.
.	.	.	.	.	.	.	.	.	.	8a-/	.	8aa-\	.
!	!	!	!	!	!	!	!	!	!	!	!	!LO:LB:g=original	!
=25	=25	=25	=25	=25	=25	=25	=25	=25	=25	=25	=25	=25	=25
1ryy	4EE-/	.	4r	.	1ryy	4r	.	4r	.	8b-'\	.	8bb-\	.
.	.	.	.	.	.	.	.	.	.	8r	.	8r	.
.	4r	.	4B-/	.	.	4G/	.	4e-\	.	8ee-'\	.	8eee-\	.
.	.	.	.	.	.	.	.	.	.	8r	.	8r	.
.	4EE-/	.	4r	.	.	4r	.	4r	.	8dd'\	.	8ddd\	.
.	.	.	.	.	.	.	.	.	.	8r	.	8r	.
.	4r	.	4B-/	.	.	4G/	.	4e-\	.	8ee-'\	.	8eee-\	.
.	.	.	.	.	.	.	.	.	.	8r	.	8r	.
!	!LO:LB:g=original	!	!	!	!	!	!	!	!	!	!	!	!
=26	=26	=26	=26	=26	=26	=26	=26	=26	=26	=26	=26	=26	=26
1ryy	8AA-/	.	4r	.	1ryy	4r	.	4r	.	8dd'\	.	8ddd\	.
.	8r	.	.	.	.	.	.	.	.	8r	.	8r	.
.	4r	.	4c/	.	.	4c/	.	4f\	.	8cc'\	.	8ccc\	.
.	.	.	.	.	.	.	.	.	.	8r	.	8r	.
!	!	!LO:DY:B:i:b:rj:t=fo	!	!	!	!	!	!	!	!	!	!	!
.	2AAn^>/	f	2e-^>/	.	.	2e-^<\	.	2f^<\	.	(8ff\L	.	(8fff\L	.
.	.	.	.	.	.	.	.	.	.	8ee-\)	.	8eee-\)	.
.	.	.	.	.	.	.	.	.	.	8dd'\	.	8ddd'\	.
.	.	.	.	.	.	.	.	.	.	8cc'\J	.	8ccc'\J	.
!	!	!	!LO:LB:g=original	!	!	!LO:LB:g=original	!	!LO:LB:g=original	!	!	!	!	!
=27	=27	=27	=27	=27	=27	=27	=27	=27	=27	=27	=27	=27	=27
!	!	!	!	!LO:DY:B:i:b:rj:t=fo	!	!	!LO:DY:B:i:b:rj:t=fo	!	!LO:DY:B:i:b:rj:t=fo	!LO:TX:a:B:t=t	!	!LO:TX:a:B:t=t	!
1ryy	2BB-^/	.	2e-/	f	1ryy	2e-^<\	f	2g\	f	4b-\	.	4bb-\	.
.	.	.	.	.	.	.	.	.	.	(8g\L	.	8gg\L	.
.	.	.	.	.	.	.	.	.	.	8ee-\J)	.	8eee-\J	.
!	!	!	!	!	!	!	!	!	!	!LO:SIC:v:s=(8cc\L	!	!	!
.	2BB-^/	.	2d/	.	.	2B-^</	.	2f\	.	(8dd\L	.	(8ccc\L	.
!	!	!	!	!	!	!	!	!	!	!LO:SIC:v:s=8b-\)	!	!	!
.	.	.	.	.	.	.	.	.	.	8cc\)	.	8bb-\)	.
!	!	!	!	!	!	!	!	!	!	!LO:SIC:v:s=8a-'\	!	!	!
.	.	.	.	.	.	.	.	.	.	8b-'\	.	8aa-'\	.
!	!	!	!	!	!	!	!	!	!	!LO:SIC:v:s=8f'\J	!	!	!
.	.	.	.	.	.	.	.	.	.	8a-'\J	.	8ff'\J	.
=	=	=	=	=	=	=	=	=	=	=	=	=	=
2.ryy	4EE-/	.	4e-/	.	2.ryy	4G/	.	4e-\	.	4e-/	.	4ee-\	.
.	.	.	.	.	.	.	.	.	.	8qff/	.	8qff/	.
.	4EE-/	.	8e-/L	.	.	8G/L	.	8e-\L	.	8ee-'\L	.	8ee-\L	.
.	.	.	8e-/J	.	.	8G/J	.	8e-\J	.	8dd'\J	.	8dd\J	.
!	!LO:TX:b:t=fine	!	!LO:TX:b:t=fine	!	!	!LO:TX:b:t=fine	!	!LO:TX:b:t=fine	!	!LO:TX:b:t=fine	!	!LO:TX:b:t=fine	!
.	4EE-;/	.	4e-;/	.	.	4G;/	.	4e-;\	.	4ee-;\	.	4ee-;\	.
=28:|!|:	=28:|!|:	=28:|!|:	=28:|!|:	=28:|!|:	=28:|!|:	=28:|!|:	=28:|!|:	=28:|!|:	=28:|!|:	=28:|!|:	=28:|!|:	=28:|!|:	=28:|!|:
!	!	!	!	!	!	!	!	!	!	!	!LO:DY:B:i:b:t=fo	!	!LO:DY:B:i:b:t=for
4ryy	4r	.	4r	.	4ryy	4r	.	4r	.	4f/	f	4ff\	f
=29	=29	=29	=29	=29	=29	=29	=29	=29	=29	=29	=29	=29	=29
!	!	!LO:DY:B:i:b:rj:t=fo	!	!LO:DY:B:i:b:rj:t=fo	!	!	!LO:DY:B:i:b:rj:t=fo	!	!LO:DY:B:i:b:rj:t=fo	!	!	!	!
1ryy	2BB-^/	f	2d^>/	f	1ryy	2B-^/	f	2f^<\	f	4dd\	.	4ddd\	.
.	.	.	.	.	.	.	.	.	.	2dd^<\	.	2ddd^<\	.
.	2BB-^/	.	2d^>/	.	.	2B-^/	.	2f^<\	.	.	.	.	.
.	.	.	.	.	.	.	.	.	.	8cc\L	.	(8ccc\L	.
.	.	.	.	.	.	.	.	.	.	8b-\J	.	8bb-\J)	.
=30	=30	=30	=30	=30	=30	=30	=30	=30	=30	=30	=30	=30	=30
1ryy	4FF/	.	4e-/	.	1ryy	4AX/	.	4f\	.	8b-\L	.	(8bb-\L	.
.	.	.	.	.	.	.	.	.	.	8a\	.	8aaX\	.
.	4FF/	.	8e-/L	.	.	8A/L	.	8f\L	.	8cc\	.	8ccc\	.
.	.	.	8e-/J	.	.	8A/J	.	8f\J	.	8b-\J	.	8bb-\J)	.
.	4FF/	.	4e-/	.	.	4A/	.	4f\	.	8a\	.	8aa\	.
.	.	.	.	.	.	.	.	.	.	8r	.	8r	.
!	!	!	!	!	!	!	!	!	!	!LO:LB:g=original	!	!	!
.	4r	.	4e-/	.	.	4A/	.	4f\	.	(8c/L	.	8cc\L	.
.	.	.	.	.	.	.	.	.	.	8d/J)	.	8dd\J	.
=31	=31	=31	=31	=31	=31	=31	=31	=31	=31	=31	=31	=31	=31
!	!	!	!	!	!	!	!	!	!	!	!	!	!LO:DY:B:i:b:t=p.
1ryy	4AAn/	.	4r	.	1ryy	4r	.	4r	.	4e-/	p	4ee-\	p
.	.	.	.	.	.	.	.	.	.	8qf/	.	8qff/	.
!	!	!	!	!LO:DY:rj	!	!	!	!	!	!	!	!	!
.	4r	.	4e-/	p	.	4c/	.	4f\	.	(8e-/L	.	(8ee-\L	.
.	.	.	.	.	.	.	.	.	.	8d/J)	.	8dd\J)	.
!	!	!	!	!	!	!	!	!	!	!	!	!LO:LB:g=original	!
.	4FF/	.	4r	.	.	4r	.	4r	.	(8e-\L	.	(8ee-\L	.
.	.	.	.	.	.	.	.	.	.	8a\	.	8aaX\	.
.	4r	.	4e-/	.	.	4c/	.	4f\	.	8cc\	.	8ccc\	.
.	.	.	.	.	.	.	.	.	.	8ee-\J)	.	8eee-\J)	.
!	!LO:LB:g=original	!	!	!	!	!	!	!	!	!	!	!	!
=32	=32	=32	=32	=32	=32	=32	=32	=32	=32	=32	=32	=32	=32
1ryy	4BB-/	.	4d/	.	1ryy	4B-/	.	4f\	.	8dd'\	.	8ddd\	.
.	.	.	.	.	.	.	.	.	.	8r	.	8r	.
.	4BB-/	.	4f/	.	.	4B-/	.	4f\	.	8b-'\	.	8bb-\	.
.	.	.	.	.	.	.	.	.	.	8r	.	8r	.
.	2F^\	.	2f^>/	.	.	2AX^>/	.	2f^<\	.	4.ff^<\	.	4.fff^<\	.
.	.	.	.	.	.	.	.	.	.	8dd\	.	8ddd\	.
!	!	!	!	!	!	!LO:LB:g=original	!	!	!	!	!	!	!
=33	=33	=33	=33	=33	=33	=33	=33	=33	=33	=33	=33	=33	=33
1ryy	2BB-/	.	2d/	.	1ryy	2B-/	.	2f\	.	4dd\	.	4ddd\	.
.	.	.	.	.	.	.	.	.	.	2dd\	.	2ddd^<\	.
.	2F#X\	.	2c/	.	.	2AX/	.	2d\	.	.	.	.	.
.	.	.	.	.	.	.	.	.	.	(8cc\L	.	8ccc\L	.
.	.	.	.	.	.	.	.	.	.	8a\J)	.	8aaX\J	.
!	!	!	!	!	!	!	!	!LO:LB:g=original	!	!	!	!	!
=34	=34	=34	=34	=34	=34	=34	=34	=34	=34	=34	=34	=34	=34
1ryy	4G\	.	4d/	.	1ryy	4B-/	.	4d\	.	(8b-\L	.	8bb-\L	.
!	!	!	!	!	!	!	!	!	!	!LO:SIC:v:s=8an\	!	!	!
.	.	.	.	.	.	.	.	.	.	8a-\	.	8aaX\	.
.	4GG/	.	4d/	.	.	4B-/	.	4d\	.	8g\	.	8gg\	.
.	.	.	.	.	.	.	.	.	.	8gg\J)	.	8ggg\J	.
.	2GG/	.	2d^>/	.	.	2B-/	.	2d^<\	.	4dd\	.	4ddd\	.
.	.	.	.	.	.	.	.	.	.	(8cc\L	.	(8ccc\L	.
.	.	.	.	.	.	.	.	.	.	8b-\J)	.	8bb-\J)	.
!	!	!	!LO:LB:g=original	!	!	!	!	!	!	!	!	!	!
=35	=35	=35	=35	=35	=35	=35	=35	=35	=35	=35	=35	=35	=35
1ryy	4C/	.	4r	.	1ryy	4r	.	4r	.	(8cc\L	.	(8ccc\L	.
.	.	.	.	.	.	.	.	.	.	8b-\	.	8bb-\	.
.	4r	.	4e-/	.	.	4AX/	.	4e-\	.	8a\	.	8aaX\	.
.	.	.	.	.	.	.	.	.	.	8ee-\J)	.	8eee-\J)	.
.	4D\	.	4r	.	.	4r	.	4r	.	8dd\L	.	(8ddd\L	.
.	.	.	.	.	.	.	.	.	.	8cc\	.	8ccc\	.
.	4r	.	4d/	.	.	4A/	.	4f#X\	.	8b-\	.	8bb-\	.
.	.	.	.	.	.	.	.	.	.	8a\J	.	8aa\J)	.
=36	=36	=36	=36	=36	=36	=36	=36	=36	=36	=36	=36	=36	=36
1ryy	4GG/	.	4d/	.	1ryy	4B-/	.	4g\	.	4g/	.	4gg\	.
.	.	.	.	.	.	.	.	.	.	8qa/	.	8qaaX/	.
.	4GG/	.	8d/L	.	.	8B-/L	.	8g\L	.	8.g/L	.	8.gg\L	.
.	.	.	8d/J	.	.	8B-/J	.	8g\J	.	.	.	.	.
.	.	.	.	.	.	.	.	.	.	16f#X/Jk	.	16ff#X\Jk	.
.	4GG/	.	4d/	.	.	4B-/	.	4g\	.	4g/	.	4gg\	.
.	4r	.	4r	.	.	4r	.	4r	.	8.g/L	.	8.gg\L	.
.	.	.	.	.	.	.	.	.	.	16a-X/Jk	.	16aa-\Jk	.
!!LO:TX:t=[segno]
==	==	==	==	==	==	==	==	==	==	==	==	==	==
*-	*-	*-	*-	*-	*-	*-	*-	*-	*-	*-	*-	*-	*-
!!!system-decoration: [g1][g1][g2][g3]
!!!RDF**kern: > = above
!!!RDF**kern: < = below
!!!ENC: Katarzyna Serwa
!!!END: 2021-10-29
!!!ENC: Andrzej Kubiczek
!!!END: 2020-08-13
